X:20
T:20 La Belle Catherine or German Spaw
C:Welch MS
I:abc2nwc
M:2/4
L:1/16
K:D
z4|:d4fede|f2d2d2c2|B4efed|c2A2A2A2|
d4fede|f2d2d2c2|B2e2 dcBA|1d4D4:|2d4|]
A2G2|F2A2A2G2|F2A2A2G2|F2A2 dfed|c2A2A2G2|
FGAB G2G2|F2AA B2c2|d4efed|a4A4|]

